X:408
%%etbk:tnset id:120,pos:1,rep:3x,ant:
%%etbk:tnset id:483,pos:2,rep:3x,ant:
%%etbk:wsite http://www.thesession.org/tunes/display/8541
%%etbk:color #ffffcc
%%etbk:pldat 2015-06-13T16:28,2015-06-10T17:47,2015-06-08T18:08,2015-02-06T18:23,2014-12-06T16:35,2014-05-19T19:14,2014-04-08T17:46,2014-03-27T18:30,2014-03-09T15:01,2014-02-27T18:34,2014-02-25T19:42,2014-02-18T17:47,2013-11-23T16:36,2013-11-18T18:18,2013-10-07T18:34,2013-05-22T16:28
T:Tauer, The
Z: Piano Box Version by Martin Fleischmann
H: Created 2013-02-19 /  Last Modified 2016-05-16
M: 2/4
L: 1/8
R: polka
K: Dmix
|: "D"!3!A!1!D !2!F!3!A | !5!d!4!^c !3!A!4!B | "A"!5!c>B cE | !1!EF !3!GF/G/ | "D"!4!A!1!D !2!F!3!A | !5!d!4!^c !3!A!4!B | "A"!5!c>B c!1!E | "D"{G}!2!E!1!D D2:|
|: "D"!5!fd e!3!d | "A"!2!^c!1!A A!4!e | "D"!3!fd ef | "A"ag ef/g/ | "D"!3!fd e!1!d | "A"!3!^c!1!A !3!A!2!B | !3!c>B c!1!E | "D"{G}!2!E!1!D D2:|


